Newaita-dark/actions/16/format-text-uppercase.svg

<svg height="16" viewBox="0 0 16 16" width="16" xmlns="http://www.w3.org/2000/svg"><g fill="#e0e0e0"><path d="m4.628906 6.078125c-1.464844 0-2.644531.886719-2.644531 1.984375v5.953125h1.324219v-2.644531h2.644531v2.644531h1.324219v-5.953125c0-1.097656-1.179688-1.984375-2.648438-1.984375zm0 1.324219c.734375 0 1.324219.292968 1.324219.660156v1.984375h-2.644531v-1.984375c0-.367188.589844-.660156 1.320312-.660156zm0 0"/><path d="m8.929688 5.417969h4.632812l-2.316406-3.308594zm0 0"/><path d="m8.601562 6.078125v7.9375h2.3125c1.648438 0 2.976563-1.105469 2.976563-2.480469v-.328125c0-.859375-.519531-1.617187-1.3125-2.0625.203125-.308593.320313-.679687.320313-1.082031 0-1.097656-.882813-1.984375-1.984376-1.984375zm1.320313 1.324219h.992187c.367188 0 .664063.292968.664063.660156s-.296875.664062-.664063.664062h-.992187zm0 2.644531h.992187c.917969 0 1.65625.589844 1.65625 1.324219s-.738281 1.324218-1.65625 1.324218h-.992187zm0 0"/></g></svg>

<svg xmlns="http://www.w3.org/2000/svg" xmlns:xlink="http://www.w3.org/1999/xlink" width="16px" height="16px" viewBox="0 0 16 16" version="1.1">
<g id="surface1">
     <defs>
  <style id="current-color-scheme" type="text/css">
   .ColorScheme-Text { color:#eeeeee; } .ColorScheme-Highlight { color:#424242; }
  </style>
 </defs>
<path style="fill:currentColor" class="ColorScheme-Text" d="M 4.628906 6.078125 C 3.164062 6.078125 1.984375 6.964844 1.984375 8.0625 L 1.984375 14.015625 L 3.308594 14.015625 L 3.308594 11.371094 L 5.953125 11.371094 L 5.953125 14.015625 L 7.277344 14.015625 L 7.277344 8.0625 C 7.277344 6.964844 6.097656 6.078125 4.628906 6.078125 Z M 4.628906 7.402344 C 5.363281 7.402344 5.953125 7.695312 5.953125 8.0625 L 5.953125 10.046875 L 3.308594 10.046875 L 3.308594 8.0625 C 3.308594 7.695312 3.898438 7.402344 4.628906 7.402344 Z M 4.628906 7.402344 "/>
     <defs>
  <style id="current-color-scheme" type="text/css">
   .ColorScheme-Text { color:#eeeeee; } .ColorScheme-Highlight { color:#424242; }
  </style>
 </defs>
<path style="fill:currentColor" class="ColorScheme-Text" d="M 8.929688 5.417969 L 13.5625 5.417969 L 11.246094 2.109375 Z M 8.929688 5.417969 "/>
     <defs>
  <style id="current-color-scheme" type="text/css">
   .ColorScheme-Text { color:#eeeeee; } .ColorScheme-Highlight { color:#424242; }
  </style>
 </defs>
<path style="fill:currentColor" class="ColorScheme-Text" d="M 8.601562 6.078125 L 8.601562 14.015625 L 10.914062 14.015625 C 12.5625 14.015625 13.890625 12.910156 13.890625 11.535156 L 13.890625 11.207031 C 13.890625 10.347656 13.371094 9.589844 12.578125 9.144531 C 12.78125 8.835938 12.898438 8.464844 12.898438 8.0625 C 12.898438 6.964844 12.015625 6.078125 10.914062 6.078125 Z M 9.921875 7.402344 L 10.914062 7.402344 C 11.28125 7.402344 11.578125 7.695312 11.578125 8.0625 C 11.578125 8.429688 11.28125 8.726562 10.914062 8.726562 L 9.921875 8.726562 Z M 9.921875 10.046875 L 10.914062 10.046875 C 11.832031 10.046875 12.570312 10.636719 12.570312 11.371094 C 12.570312 12.105469 11.832031 12.695312 10.914062 12.695312 L 9.921875 12.695312 Z M 9.921875 10.046875 "/>
</g>
</svg>
